icon/lg/apple-pay.svg

<?xml version="1.0" encoding="UTF-8"?>
<svg viewBox="0 0 512 211" version="1.1" xmlns="http://www.w3.org/2000/svg" xmlns:xlink="http://www.w3.org/1999/xlink" preserveAspectRatio="xMidYMid" height="1em" width="1em">
  <g>
    <path d="M93.5520633,27.1031049 C87.5513758,34.2039183 77.9502759,39.8045599 68.349176,39.0044683 C67.1490386,29.4033684 71.849577,19.2021998 77.3502072,12.901478 C83.3508946,5.6006416 93.8520976,0.400045829 102.353071,0 C103.353186,10.0011457 99.4527392,19.8022685 93.5520633,27.1031049 Z M102.25306,40.904686 C88.3514675,40.1045943 76.4501041,48.8055911 69.8493479,48.8055911 C63.1485803,48.8055911 53.0474231,41.3047318 42.0461628,41.5047547 C27.7445244,41.7047776 14.4430006,49.8057057 7.14216427,62.7071836 C-7.8595543,88.5101396 3.24171744,126.714516 17.7433787,147.716922 C24.8441922,158.118114 33.345166,169.51942 44.5464492,169.119374 C55.1476637,168.719328 59.3481449,162.218584 72.1496114,162.218584 C85.0510894,162.218584 88.7515133,169.119374 99.9527965,168.919351 C111.554126,168.719328 118.854962,158.51816 125.955775,148.116968 C134.056703,136.315616 137.357081,124.814299 137.557104,124.21423 C137.357081,124.014207 115.154538,115.513233 114.954515,89.9103 C114.754492,68.5078482 132.45652,58.3066795 133.256612,57.7066108 C123.255466,42.9049151 107.653679,41.3047318 102.25306,40.904686 Z M182.56226,11.9013634 L182.56226,167.819225 L206.765033,167.819225 L206.765033,114.513118 L240.268871,114.513118 C270.872377,114.513118 292.37484,93.5107124 292.37484,63.1072295 C292.37484,32.7037465 271.272423,11.9013634 241.068963,11.9013634 L182.56226,11.9013634 Z M206.765033,32.3037007 L234.668229,32.3037007 C255.670635,32.3037007 267.67201,43.5049839 267.67201,63.2072409 C267.67201,82.909498 255.670635,94.2107926 234.568218,94.2107926 L206.765033,94.2107926 L206.765033,32.3037007 Z M336.579904,169.019363 C351.781646,169.019363 365.883261,161.31848 372.283994,149.117083 L372.784052,149.117083 L372.784052,167.819225 L395.186618,167.819225 L395.186618,90.2103344 C395.186618,67.7077565 377.184556,53.2060952 349.481382,53.2060952 C323.778438,53.2060952 304.776261,67.9077794 304.076181,88.1100938 L325.878678,88.1100938 C327.678884,78.5089939 336.579904,72.2082721 348.781302,72.2082721 C363.582998,72.2082721 371.883949,79.1090626 371.883949,91.8105177 L371.883949,100.411503 L341.680488,102.211709 C313.577269,103.911904 298.375528,115.413222 298.375528,135.415513 C298.375528,155.617827 314.077326,169.019363 336.579904,169.019363 Z M343.080649,150.517243 C330.179171,150.517243 321.978231,144.316533 321.978231,134.815444 C321.978231,125.014321 329.879137,119.313668 344.980867,118.413565 L371.883949,116.713371 L371.883949,125.514379 C371.883949,140.116051 359.482528,150.517243 343.080649,150.517243 Z M425.090044,210.224083 C448.692748,210.224083 459.794019,201.223052 469.495131,173.919924 L512,54.7062671 L487.397182,54.7062671 L458.893916,146.816819 L458.393859,146.816819 L429.890594,54.7062671 L404.587695,54.7062671 L445.592392,168.219271 L443.39214,175.120061 C439.691716,186.821402 433.691029,191.321918 422.989803,191.321918 C421.089585,191.321918 417.389162,191.121895 415.88899,190.921872 L415.88899,209.624014 C417.28915,210.02406 423.289838,210.224083 425.090044,210.224083 Z" fill="#000000"/>
  </g>
</svg>

<svg width="512" height="211" xmlns="http://www.w3.org/2000/svg" preserveAspectRatio="xMidYMid"><path d="M93.552 27.103c-6 7.1-15.602 12.702-25.203 11.901-1.2-9.6 3.5-19.802 9.001-26.103C83.35 5.601 93.852.4 102.353 0c1 10.001-2.9 19.802-8.8 27.103Zm8.701 13.802c-13.902-.8-25.803 7.9-32.404 7.9-6.7 0-16.802-7.5-27.803-7.3-14.301.2-27.603 8.3-34.904 21.202-15.002 25.803-3.9 64.008 10.601 85.01 7.101 10.401 15.602 21.802 26.803 21.402 10.602-.4 14.802-6.9 27.604-6.9 12.901 0 16.602 6.9 27.803 6.7 11.601-.2 18.902-10.4 26.003-20.802 8.1-11.801 11.401-23.303 11.601-23.903-.2-.2-22.402-8.7-22.602-34.304-.2-21.402 17.502-31.603 18.302-32.203-10.002-14.802-25.603-16.402-31.004-16.802Zm80.31-29.004V167.82h24.202v-53.306h33.504c30.603 0 52.106-21.002 52.106-51.406 0-30.403-21.103-51.206-51.306-51.206h-58.507Zm24.202 20.403h27.903c21.003 0 33.004 11.201 33.004 30.903 0 19.702-12.001 31.004-33.104 31.004h-27.803V32.304ZM336.58 169.019c15.202 0 29.303-7.7 35.704-19.902h.5v18.702h22.403V90.21c0-22.502-18.002-37.004-45.706-37.004-25.703 0-44.705 14.702-45.405 34.904h21.803c1.8-9.601 10.7-15.902 22.902-15.902 14.802 0 23.103 6.901 23.103 19.603v8.6l-30.204 1.8c-28.103 1.7-43.304 13.202-43.304 33.205 0 20.202 15.701 33.603 38.204 33.603Zm6.5-18.502c-12.9 0-21.102-6.2-21.102-15.702 0-9.8 7.901-15.501 23.003-16.401l26.903-1.7v8.8c0 14.602-12.401 25.003-28.803 25.003Zm82.01 59.707c23.603 0 34.704-9 44.405-36.304L512 54.706h-24.603l-28.503 92.11h-.5l-28.503-92.11h-25.303l41.004 113.513-2.2 6.901c-3.7 11.701-9.701 16.202-20.402 16.202-1.9 0-5.6-.2-7.101-.4v18.702c1.4.4 7.4.6 9.201.6Z"/></svg>
